assets/images/icon-email.svg

<svg xmlns="http://www.w3.org/2000/svg" width="40" height="40" viewBox="0 0 40 40">
  <path fill="#000000" fill-rule="evenodd" d="M20.0330033,39.9339934 C31.0604711,39.9339934 40,30.9944645 40,19.9669967 C40,8.93952892 31.0604711,0 20.0330033,0 C9.00553552,0 0.0660066007,8.93952892 0.0660066007,19.9669967 C0.0660066007,30.9944645 9.00553552,39.9339934 20.0330033,39.9339934 Z M11.6053945,26.3476318 L17.9183129,20.6076296 L19.7197546,22.2470586 C19.8584052,22.3700908 20.0310836,22.4346077 20.2057935,22.4346077 C20.377964,22.4346077 20.5526739,22.3700908 20.6898008,22.2470586 L22.4932741,20.6076296 L28.8056846,26.3476318 L11.6053945,26.3476318 Z M10.4941584,13.8558626 L16.8644669,19.6503791 L10.4941584,25.4448955 L10.4941584,13.8558626 Z M28.8056846,12.9531264 L20.2057935,20.7716725 L11.6053945,12.9531264 L28.8056846,12.9531264 Z M29.9169207,25.4448955 L23.5466122,19.6503791 L29.9169207,13.8558626 L29.9169207,25.4448955 Z M31.3252653,12.1464152 C31.3156156,12.095902 31.3115526,12.0408876 31.2937769,11.9958758 C31.2739696,11.9453626 31.2399418,11.9003508 31.2084534,11.8553391 C31.1886462,11.8278319 31.1784887,11.7968237 31.1546184,11.7713171 C31.1525869,11.7693166 31.1470002,11.767316 31.1449687,11.7658156 C31.1012913,11.7208039 31.0515193,11.6932967 31.0002236,11.6617884 C30.9722904,11.6442838 30.9484201,11.6192773 30.9184553,11.6072741 C30.8808724,11.5897696 30.8412579,11.5897696 30.8016435,11.5797669 C30.74984,11.5682639 30.7005759,11.5487588 30.6447093,11.5487588 C30.6406463,11.5487588 30.6370912,11.5467583 30.6309966,11.5467583 L9.78008248,11.5467583 C9.77601946,11.5467583 9.77246432,11.5487588 9.7684013,11.5487588 C9.70085358,11.5487588 9.64346341,11.5682639 9.58404173,11.583768 C9.55407696,11.5937706 9.52208067,11.5937706 9.49465528,11.6052736 C9.45859597,11.6207777 9.43117058,11.6482849 9.39917429,11.6697905 C9.35346531,11.6992982 9.3062327,11.7243048 9.26661825,11.7658156 C9.26255523,11.767316 9.2584922,11.7693166 9.25442918,11.7713171 C9.23259045,11.7968237 9.22090926,11.8278319 9.20313355,11.8553391 C9.17113726,11.9003508 9.13761734,11.9453626 9.11781011,11.9958758 C9.09952652,12.0408876 9.09393987,12.095902 9.08581383,12.1464152 C9.0797193,12.1819245 9.0660066,12.2129326 9.0660066,12.2499423 L9.0660066,27.0508158 C9.0660066,27.0878255 9.0797193,27.1173332 9.08581383,27.1523424 C9.09393987,27.2053563 9.09952652,27.25787 9.11781011,27.3048823 C9.13761734,27.353395 9.17113726,27.3984068 9.20313355,27.4434186 C9.22090926,27.4709258 9.23259045,27.5039344 9.25442918,27.5274406 C9.2584922,27.5314416 9.26255523,27.5314416 9.26661825,27.5354426 C9.32807143,27.5999595 9.39917429,27.6464717 9.47687956,27.681981 C9.48652924,27.685982 9.49262377,27.693484 9.4987183,27.6974851 C9.58962839,27.7344947 9.68510937,27.7539998 9.78008248,27.7539998 L30.6309966,27.7539998 C30.7259697,27.7539998 30.8214507,27.7344947 30.9108372,27.6974851 C30.9184553,27.693484 30.9245499,27.685982 30.9326759,27.681981 C31.0098733,27.6464717 31.081484,27.5999595 31.1449687,27.5354426 C31.1470002,27.5314416 31.1525869,27.5314416 31.1546184,27.5274406 C31.1784887,27.5039344 31.1886462,27.4709258 31.2084534,27.4434186 C31.2399418,27.3984068 31.2739696,27.353395 31.2937769,27.3048823 C31.3115526,27.25787 31.3156156,27.2053563 31.3252653,27.1523424 C31.3293283,27.1173332 31.3450725,27.0878255 31.3450725,27.0508158 L31.3450725,12.2499423 C31.3450725,12.2129326 31.3293283,12.1819245 31.3252653,12.1464152 Z"/>
</svg>

<svg xmlns="http://www.w3.org/2000/svg" width="40" height="40" viewBox="0 0 40 40"><path fill-rule="evenodd" d="M20.033 39.934C31.06 39.934 40 30.994 40 19.967S31.06 0 20.033 0 .066 8.94.066 19.967s8.94 19.967 19.967 19.967zm-8.428-13.586l6.313-5.74 1.802 1.64a.732.732 0 0 0 .486.187.729.729 0 0 0 .484-.188l1.803-1.64 6.313 5.74h-17.2zm-1.11-12.492l6.37 5.794-6.37 5.795v-11.59zm18.31-.903l-8.6 7.819-8.6-7.819h17.2zm1.112 12.492l-6.37-5.795 6.37-5.794v11.589zm1.408-13.299c-.01-.05-.013-.105-.031-.15-.02-.05-.054-.096-.086-.14-.02-.028-.03-.06-.053-.085l-.01-.005c-.044-.045-.093-.073-.145-.104-.028-.018-.052-.043-.082-.055-.037-.017-.077-.017-.116-.027-.052-.012-.101-.031-.157-.031l-.014-.002H9.781l-.013.002c-.067 0-.125.02-.184.035-.03.01-.062.01-.09.021-.035.016-.063.043-.095.065-.046.03-.093.054-.132.096l-.013.005c-.021.026-.033.057-.05.084-.033.045-.066.09-.086.14-.018.046-.024.1-.032.151-.006.036-.02.067-.02.104v14.8c0 .038.014.067.02.102.008.053.014.106.032.153.02.048.053.093.085.138.018.028.03.06.051.084.004.004.009.004.013.008a.668.668 0 0 0 .21.147c.01.004.016.011.022.015.09.037.186.057.281.057h20.851c.095 0 .19-.02.28-.057.007-.004.014-.011.022-.015a.706.706 0 0 0 .212-.147c.002-.004.008-.004.01-.008.023-.023.034-.056.053-.084.032-.045.066-.09.086-.138.018-.047.022-.1.031-.153.004-.035.02-.064.02-.101V12.25c0-.037-.016-.068-.02-.104z"/></svg>
